X: 1348
T: An Phis Thirim
R: slip jig
M: 9/8
K: Bminor
dcB BFB dcB|c2A-A2c dcB|FBB-B2c dcB|~f3 fed edc:|:
Bdf bag fef|g2e-e2g- gfe|dcB Bcd cBA|dcB Bcd c2A:|

